Newaita-dark/apps/22/blueman.svg

<svg height="22pt" viewBox="0 0 22 22" width="22pt" xmlns="http://www.w3.org/2000/svg" xmlns:xlink="http://www.w3.org/1999/xlink"><linearGradient id="a"><stop offset="0" stop-opacity=".313725"/><stop offset=".222222" stop-opacity=".27451"/><stop offset="1" stop-opacity="0"/></linearGradient><radialGradient id="b" cx="450.90894" cy="189.57936" gradientTransform="matrix(.00000012 -.0537161 -.0966889 -.00000007 30.609667 43.721791)" gradientUnits="userSpaceOnUse" r="21.166656" xlink:href="#a"/><radialGradient id="c" cx="450.90894" cy="189.57936" gradientTransform="matrix(-.00000012 .0537161 .0966889 .00000007 -8.779458 -5.175143)" gradientUnits="userSpaceOnUse" r="21.166656" xlink:href="#a"/><radialGradient id="d" cx="450.90894" cy="189.57936" gradientTransform="matrix(-.00000012 -.0537161 .0966889 -.00000007 -8.779458 43.721791)" gradientUnits="userSpaceOnUse" r="21.166656" xlink:href="#a"/><radialGradient id="e" cx="450.90894" cy="189.57936" gradientTransform="matrix(.00000012 .0537161 -.0966889 .00000007 30.609666 -5.175144)" gradientUnits="userSpaceOnUse" r="21.166656" xlink:href="#a"/><linearGradient id="f" gradientTransform="matrix(.00918504 0 0 .0429729 8.569953 9.239164)" gradientUnits="userSpaceOnUse" x1="255.32306" x2="255.32304" y1="233.5" y2="254.66666"><stop offset="0" stop-opacity=".27451"/><stop offset="1" stop-opacity="0"/></linearGradient><linearGradient id="g" gradientUnits="userSpaceOnUse" x1="10.9151166" x2="10.9151166" y1="19.27333515" y2="1.99106705676"><stop offset="0" stop-color="#3f51b5"/><stop offset="1" stop-color="#5c6bc0"/></linearGradient><linearGradient id="h" gradientUnits="userSpaceOnUse" x1="10.00552340676" x2="10.00552340676" y1="1.99106748649" y2="19.27333515"><stop offset="0" stop-color="#e0e0e0"/><stop offset="1" stop-color="#bdbdbd"/></linearGradient><path d="m12.507812 19.273438h1.816407v-.910157h-1.816407zm0 0" fill="url(#b)"/><path d="m9.324219 19.273438h-1.820313v.910156h1.820313zm0 0" fill="url(#c)"/><path d="m9.324219 19.273438h-1.820313v-.910157h1.820313zm0 0" fill="url(#d)"/><path d="m12.507812 19.273438h1.816407v.910156h-1.816407zm0 0" fill="url(#e)"/><path d="m9.324219 19.046875h3.183593v1.136719h-3.183593zm0 0" fill="url(#f)"/><path d="m10.914062 1.992188c3.015626 0 5.457032 2.441406 5.457032 5.457031v6.367187c0 3.011719-2.441406 5.457032-5.457032 5.457032-3.011718 0-5.457031-2.445313-5.457031-5.457032v-6.367187c0-3.015625 2.445313-5.457031 5.457031-5.457031zm0 0" fill="url(#g)"/><path d="m10.914062 1.992188c-3.023437 0-5.457031 2.433593-5.457031 5.457031v.226562c0-3.023437 2.433594-5.457031 5.457031-5.457031 3.023438 0 5.457032 2.433594 5.457032 5.457031v-.226562c0-3.023438-2.433594-5.457031-5.457032-5.457031zm0 0" fill="#fff" fill-opacity=".392157"/><path d="m5.457031 13.667969v.148437c0 3.023438 2.433594 5.457032 5.457031 5.457032 3.023438 0 5.457032-2.433594 5.457032-5.457032v-.148437c0 3.023437-2.433594 5.457031-5.457032 5.457031-3.023437 0-5.457031-2.433594-5.457031-5.457031zm0 0" fill-opacity=".235294"/><path d="m10.914062 1.925781c-3.058593 0-5.519531 2.464844-5.519531 5.523438v6.367187c0 3.058594 2.460938 5.519532 5.519531 5.519532 3.058594 0 5.523438-2.460938 5.523438-5.519532v-6.367187c0-3.058594-2.464844-5.523438-5.523438-5.523438zm0 .128907c2.988282 0 5.394532 2.40625 5.394532 5.394531v6.367187c0 2.988282-2.40625 5.390625-5.394532 5.390625-2.988281 0-5.390624-2.402343-5.390624-5.390625v-6.367187c0-2.988281 2.402343-5.394531 5.390624-5.394531zm0 0" fill="#212121"/><path d="m10.703125 4.941406c-.1875-.003906-.363281.070313-.496094.199219-.132812.128906-.207031.304687-.207031.488281v3.226563l-1.574219-1.457031c-.179687-.171876-.4375-.230469-.675781-.160157-.238281.074219-.417969.269531-.46875.511719-.054688.242188.027344.492188.210938.65625l2.410156 2.226562-2.410156 2.222657c-.183594.167969-.265626.417969-.210938.660156.050781.242187.230469.4375.46875.507813.238281.074218.496094.011718.675781-.15625l1.574219-1.457032v3.226563c0 .253906.144531.492187.375.609375.226562.117187.503906.097656.710938-.050782l3.183593-2.277343c.167969-.117188.273438-.308594.285157-.515625.015624-.203125-.066407-.40625-.21875-.546875l-2.410157-2.222657 2.410157-2.226562c.152343-.136719.234374-.339844.21875-.546875-.011719-.203125-.117188-.394531-.285157-.515625l-3.183593-2.273438c-.113282-.078124-.246094-.125-.382813-.128906zm.671875 2.023438 1.410156 1.007812-1.410156 1.300782zm0 5.023437 1.410156 1.304688-1.410156 1.007812zm0 0" fill="url(#h)"/><path d="m10.703125 4.941406c-.1875-.003906-.363281.070313-.496094.199219-.132812.128906-.207031.304687-.207031.488281v.222656c0-.183593.074219-.359374.207031-.488281.132813-.128906.308594-.199219.496094-.195312.136719 0 .269531.046875.382813.125l3.183593 2.273437c.148438.109375.25.269532.277344.449219.042969-.257813-.0625-.519531-.277344-.671875l-3.183593-2.273438c-.113282-.078124-.246094-.125-.382813-.128906zm-2.777344 2.269532c-.199219.007812-.382812.097656-.507812.25-.125.15625-.175781.355468-.144531.546874.054687-.320312.324218-.5625.652343-.574218.183594-.007813.363281.0625.5.1875l1.574219 1.457031v-.222656l-1.574219-1.457031c-.136719-.128907-.316406-.195313-.5-.1875zm4.648438.957031-1.199219 1.105469v.222656l1.199219-1.105469.074219.050781.136718-.125zm-2.859375 2.636719-2.222656 2.050781c-.175782.15625-.257813.394531-.21875.625.027343-.152344.101562-.296875.21875-.402344l2.222656-2.050781.066406.0625.121094-.113282zm2.398437 0-.1875.171874.121094.113282.066406-.0625 2.222657 2.050781c.113281.105469.1875.242187.210937.394531.039063-.226562-.039063-.460937-.210937-.617187zm.460938 2.640624-1.199219.855469v.222657l1.199219-.855469.074219.066406.136718-.097656zm0 0" fill="#fff" fill-opacity=".901961"/><path d="m11.375 6.964844v.421875l1.152344.824219.257812-.238282zm-4.078125 1.140625c-.082031.261719-.007813.546875.195313.726562l2.179687 2.011719.230469-.210938-2.410156-2.226562c-.089844-.078125-.15625-.183594-.195313-.300781zm7.226563.011719c-.035157.109374-.101563.210937-.1875.289062l-2.410157 2.226562.230469.210938 2.179688-2.011719c.199218-.183593.269531-.460937.1875-.714843zm-3.148438 3.871093v.425781l1.152344 1.0625.257812-.183593zm-1.375.421875-1.574219 1.457032c-.171875.160156-.414062.222656-.644531.167968-.226562-.058594-.410156-.230468-.484375-.453125-.09375.296875.023437.625.289063.789063.265624.167968.609374.136718.839843-.082032l1.574219-1.453124zm4.523438 1.164063c-.046876.136719-.132813.261719-.253907.34375l-3.183593 2.277343c-.207032.148438-.484376.167969-.710938.050782-.230469-.117188-.375-.355469-.375-.609375v.421875c0 .257812.144531.492187.375.609375.226562.121093.503906.097656.710938-.050781l3.183593-2.273438c.242188-.175781.347657-.484375.253907-.769531zm0 0" fill-opacity=".235294"/><path d="m249.067124-100.010981c-4.363219-.0909-8.453738 1.636207-11.544352 4.635921s-4.817721 7.090232-4.817721 11.362551v75.083739l-36.632866-33.905853c-4.181419-3.999618-10.180846-5.363124-15.725771-3.726917-5.544925 1.727108-9.726344 6.272129-10.908049 11.907954-1.272606 5.635826.636303 11.453452 4.908622 15.271269l56.085553 51.813234-56.085553 51.722333c-4.272319 3.908718-6.181228 9.726344-4.908622 15.36217 1.181705 5.635825 5.363124 10.180846 10.908049 11.817053 5.544925 1.727108 11.544352.272701 15.725771-3.636016l36.632866-33.905853v75.083739c0 5.908526 3.363315 11.453451 8.726439 14.180464 5.272224 2.727012 11.726153 2.27251 16.543875-1.181706l74.083834-52.994939c3.908718-2.727012 6.363029-7.181132 6.63573-11.998854.363602-4.726821-1.545307-9.453643-5.090423-12.726058l-56.085553-51.722333 56.085553-51.813234c3.545116-3.181514 5.454025-7.908336 5.090423-12.726057-.272701-4.726822-2.727012-9.180942-6.63573-11.998855l-74.083834-52.904038c-2.636112-1.818009-5.726726-2.908813-8.908241-2.999714zm15.634871 47.086413 32.815048 23.452306-32.815048 30.269836zm0 116.897927 32.815048 30.360737-32.815048 23.452306zm0 0" fill="none" stroke="#212121" stroke-linecap="round" stroke-linejoin="round" stroke-width="3" transform="matrix(.0429729 0 0 .0429729 0 9.239163)"/></svg>

<?xml version="1.0" encoding="UTF-8"?>
<svg xmlns="http://www.w3.org/2000/svg" xmlns:xlink="http://www.w3.org/1999/xlink" width="22pt" height="22pt" viewBox="0 0 22 22" version="1.1">
<defs>
<radialGradient id="radial0" gradientUnits="userSpaceOnUse" cx="450.90894" cy="189.57936" fx="450.90894" fy="189.57936" r="21.166656" gradientTransform="matrix(0.000000119742,-0.0537161,-0.0966889,-0.0000000698078,30.609667,43.721791)">
<stop offset="0" style="stop-color:rgb(0%,0%,0%);stop-opacity:0.313725;"/>
<stop offset="0.222222" style="stop-color:rgb(0%,0%,0%);stop-opacity:0.27451;"/>
<stop offset="1" style="stop-color:rgb(0%,0%,0%);stop-opacity:0;"/>
</radialGradient>
<radialGradient id="radial1" gradientUnits="userSpaceOnUse" cx="450.90894" cy="189.57936" fx="450.90894" fy="189.57936" r="21.166656" gradientTransform="matrix(-0.000000119742,0.0537161,0.0966889,0.0000000698078,-8.779458,-5.175143)">
<stop offset="0" style="stop-color:rgb(0%,0%,0%);stop-opacity:0.313725;"/>
<stop offset="0.222222" style="stop-color:rgb(0%,0%,0%);stop-opacity:0.27451;"/>
<stop offset="1" style="stop-color:rgb(0%,0%,0%);stop-opacity:0;"/>
</radialGradient>
<radialGradient id="radial2" gradientUnits="userSpaceOnUse" cx="450.90894" cy="189.57936" fx="450.90894" fy="189.57936" r="21.166656" gradientTransform="matrix(-0.000000119742,-0.0537161,0.0966889,-0.0000000698078,-8.779458,43.721791)">
<stop offset="0" style="stop-color:rgb(0%,0%,0%);stop-opacity:0.313725;"/>
<stop offset="0.222222" style="stop-color:rgb(0%,0%,0%);stop-opacity:0.27451;"/>
<stop offset="1" style="stop-color:rgb(0%,0%,0%);stop-opacity:0;"/>
</radialGradient>
<radialGradient id="radial3" gradientUnits="userSpaceOnUse" cx="450.90894" cy="189.57936" fx="450.90894" fy="189.57936" r="21.166656" gradientTransform="matrix(0.000000119742,0.0537161,-0.0966889,0.0000000698078,30.609666,-5.175144)">
<stop offset="0" style="stop-color:rgb(0%,0%,0%);stop-opacity:0.313725;"/>
<stop offset="0.222222" style="stop-color:rgb(0%,0%,0%);stop-opacity:0.27451;"/>
<stop offset="1" style="stop-color:rgb(0%,0%,0%);stop-opacity:0;"/>
</radialGradient>
<linearGradient id="linear0" gradientUnits="userSpaceOnUse" x1="255.32306" y1="233.5" x2="255.32304" y2="254.66666" gradientTransform="matrix(0.00918504,0,0,0.0429729,8.569953,9.239164)">
<stop offset="0" style="stop-color:rgb(0%,0%,0%);stop-opacity:0.27451;"/>
<stop offset="1" style="stop-color:rgb(0%,0%,0%);stop-opacity:0;"/>
</linearGradient>
<linearGradient id="linear1" gradientUnits="userSpaceOnUse" x1="254" y1="233.5" x2="254" y2="-168.66667" gradientTransform="matrix(0.0429729,0,0,0.0429729,0,9.239163)">
<stop offset="0" style="stop-color:rgb(24.705882%,31.764706%,70.980392%);stop-opacity:1;"/>
<stop offset="1" style="stop-color:rgb(36.078431%,41.960784%,75.294118%);stop-opacity:1;"/>
</linearGradient>
<linearGradient id="linear2" gradientUnits="userSpaceOnUse" x1="232.83333" y1="-168.66666" x2="232.83333" y2="233.5" gradientTransform="matrix(0.0429729,0,0,0.0429729,0,9.239163)">
<stop offset="0" style="stop-color:rgb(87.843137%,87.843137%,87.843137%);stop-opacity:1;"/>
<stop offset="1" style="stop-color:rgb(74.117647%,74.117647%,74.117647%);stop-opacity:1;"/>
</linearGradient>
</defs>
<g id="surface1">
<path style=" stroke:none;fill-rule:nonzero;fill:url(#radial0);" d="M 12.507812 19.273438 L 14.324219 19.273438 L 14.324219 18.363281 L 12.507812 18.363281 Z M 12.507812 19.273438 "/>
<path style=" stroke:none;fill-rule:nonzero;fill:url(#radial1);" d="M 9.324219 19.273438 L 7.503906 19.273438 L 7.503906 20.183594 L 9.324219 20.183594 Z M 9.324219 19.273438 "/>
<path style=" stroke:none;fill-rule:nonzero;fill:url(#radial2);" d="M 9.324219 19.273438 L 7.503906 19.273438 L 7.503906 18.363281 L 9.324219 18.363281 Z M 9.324219 19.273438 "/>
<path style=" stroke:none;fill-rule:nonzero;fill:url(#radial3);" d="M 12.507812 19.273438 L 14.324219 19.273438 L 14.324219 20.183594 L 12.507812 20.183594 Z M 12.507812 19.273438 "/>
<path style=" stroke:none;fill-rule:nonzero;fill:url(#linear0);" d="M 9.324219 19.046875 L 12.507812 19.046875 L 12.507812 20.183594 L 9.324219 20.183594 Z M 9.324219 19.046875 "/>
<path style=" stroke:none;fill-rule:nonzero;fill:url(#linear1);" d="M 10.914062 1.992188 C 13.929688 1.992188 16.371094 4.433594 16.371094 7.449219 L 16.371094 13.816406 C 16.371094 16.828125 13.929688 19.273438 10.914062 19.273438 C 7.902344 19.273438 5.457031 16.828125 5.457031 13.816406 L 5.457031 7.449219 C 5.457031 4.433594 7.902344 1.992188 10.914062 1.992188 Z M 10.914062 1.992188 "/>
<path style=" stroke:none;fill-rule:nonzero;fill:rgb(100%,100%,100%);fill-opacity:0.392157;" d="M 10.914062 1.992188 C 7.890625 1.992188 5.457031 4.425781 5.457031 7.449219 L 5.457031 7.675781 C 5.457031 4.652344 7.890625 2.21875 10.914062 2.21875 C 13.9375 2.21875 16.371094 4.652344 16.371094 7.675781 L 16.371094 7.449219 C 16.371094 4.425781 13.9375 1.992188 10.914062 1.992188 Z M 10.914062 1.992188 "/>
<path style=" stroke:none;fill-rule:nonzero;fill:rgb(0%,0%,0%);fill-opacity:0.235294;" d="M 5.457031 13.667969 L 5.457031 13.816406 C 5.457031 16.839844 7.890625 19.273438 10.914062 19.273438 C 13.9375 19.273438 16.371094 16.839844 16.371094 13.816406 L 16.371094 13.667969 C 16.371094 16.691406 13.9375 19.125 10.914062 19.125 C 7.890625 19.125 5.457031 16.691406 5.457031 13.667969 Z M 5.457031 13.667969 "/>
<path style=" stroke:none;fill-rule:nonzero;fill:rgb(12.941176%,12.941176%,12.941176%);fill-opacity:1;" d="M 10.914062 1.925781 C 7.855469 1.925781 5.394531 4.390625 5.394531 7.449219 L 5.394531 13.816406 C 5.394531 16.875 7.855469 19.335938 10.914062 19.335938 C 13.972656 19.335938 16.4375 16.875 16.4375 13.816406 L 16.4375 7.449219 C 16.4375 4.390625 13.972656 1.925781 10.914062 1.925781 Z M 10.914062 2.054688 C 13.902344 2.054688 16.308594 4.460938 16.308594 7.449219 L 16.308594 13.816406 C 16.308594 16.804688 13.902344 19.207031 10.914062 19.207031 C 7.925781 19.207031 5.523438 16.804688 5.523438 13.816406 L 5.523438 7.449219 C 5.523438 4.460938 7.925781 2.054688 10.914062 2.054688 Z M 10.914062 2.054688 "/>
<path style=" stroke:none;fill-rule:nonzero;fill:url(#linear2);" d="M 10.703125 4.941406 C 10.515625 4.9375 10.339844 5.011719 10.207031 5.140625 C 10.074219 5.269531 10 5.445312 10 5.628906 L 10 8.855469 L 8.425781 7.398438 C 8.246094 7.226562 7.988281 7.167969 7.75 7.238281 C 7.511719 7.3125 7.332031 7.507812 7.28125 7.75 C 7.226562 7.992188 7.308594 8.242188 7.492188 8.40625 L 9.902344 10.632812 L 7.492188 12.855469 C 7.308594 13.023438 7.226562 13.273438 7.28125 13.515625 C 7.332031 13.757812 7.511719 13.953125 7.75 14.023438 C 7.988281 14.097656 8.246094 14.035156 8.425781 13.867188 L 10 12.410156 L 10 15.636719 C 10 15.890625 10.144531 16.128906 10.375 16.246094 C 10.601562 16.363281 10.878906 16.34375 11.085938 16.195312 L 14.269531 13.917969 C 14.4375 13.800781 14.542969 13.609375 14.554688 13.402344 C 14.570312 13.199219 14.488281 12.996094 14.335938 12.855469 L 11.925781 10.632812 L 14.335938 8.40625 C 14.488281 8.269531 14.570312 8.066406 14.554688 7.859375 C 14.542969 7.65625 14.4375 7.464844 14.269531 7.34375 L 11.085938 5.070312 C 10.972656 4.992188 10.839844 4.945312 10.703125 4.941406 Z M 11.375 6.964844 L 12.785156 7.972656 L 11.375 9.273438 Z M 11.375 11.988281 L 12.785156 13.292969 L 11.375 14.300781 Z M 11.375 11.988281 "/>
<path style=" stroke:none;fill-rule:nonzero;fill:rgb(100%,100%,100%);fill-opacity:0.901961;" d="M 10.703125 4.941406 C 10.515625 4.9375 10.339844 5.011719 10.207031 5.140625 C 10.074219 5.269531 10 5.445312 10 5.628906 L 10 5.851562 C 10 5.667969 10.074219 5.492188 10.207031 5.363281 C 10.339844 5.234375 10.515625 5.164062 10.703125 5.167969 C 10.839844 5.167969 10.972656 5.214844 11.085938 5.292969 L 14.269531 7.566406 C 14.417969 7.675781 14.519531 7.835938 14.546875 8.015625 C 14.589844 7.757812 14.484375 7.496094 14.269531 7.34375 L 11.085938 5.070312 C 10.972656 4.992188 10.839844 4.945312 10.703125 4.941406 Z M 7.925781 7.210938 C 7.726562 7.21875 7.542969 7.308594 7.417969 7.460938 C 7.292969 7.617188 7.242188 7.816406 7.273438 8.007812 C 7.328125 7.6875 7.597656 7.445312 7.925781 7.433594 C 8.109375 7.425781 8.289062 7.496094 8.425781 7.621094 L 10 9.078125 L 10 8.855469 L 8.425781 7.398438 C 8.289062 7.269531 8.109375 7.203125 7.925781 7.210938 Z M 12.574219 8.167969 L 11.375 9.273438 L 11.375 9.496094 L 12.574219 8.390625 L 12.648438 8.441406 L 12.785156 8.316406 Z M 9.714844 10.804688 L 7.492188 12.855469 C 7.316406 13.011719 7.234375 13.25 7.273438 13.480469 C 7.300781 13.328125 7.375 13.183594 7.492188 13.078125 L 9.714844 11.027344 L 9.78125 11.089844 L 9.902344 10.976562 Z M 12.113281 10.804688 L 11.925781 10.976562 L 12.046875 11.089844 L 12.113281 11.027344 L 14.335938 13.078125 C 14.449219 13.183594 14.523438 13.320312 14.546875 13.472656 C 14.585938 13.246094 14.507812 13.011719 14.335938 12.855469 Z M 12.574219 13.445312 L 11.375 14.300781 L 11.375 14.523438 L 12.574219 13.667969 L 12.648438 13.734375 L 12.785156 13.636719 Z M 12.574219 13.445312 "/>
<path style=" stroke:none;fill-rule:nonzero;fill:rgb(0%,0%,0%);fill-opacity:0.235294;" d="M 11.375 6.964844 L 11.375 7.386719 L 12.527344 8.210938 L 12.785156 7.972656 Z M 7.296875 8.105469 C 7.214844 8.367188 7.289062 8.652344 7.492188 8.832031 L 9.671875 10.84375 L 9.902344 10.632812 L 7.492188 8.40625 C 7.402344 8.328125 7.335938 8.222656 7.296875 8.105469 Z M 14.523438 8.117188 C 14.488281 8.226562 14.421875 8.328125 14.335938 8.40625 L 11.925781 10.632812 L 12.15625 10.84375 L 14.335938 8.832031 C 14.535156 8.648438 14.605469 8.371094 14.523438 8.117188 Z M 11.375 11.988281 L 11.375 12.414062 L 12.527344 13.476562 L 12.785156 13.292969 Z M 10 12.410156 L 8.425781 13.867188 C 8.253906 14.027344 8.011719 14.089844 7.78125 14.035156 C 7.554688 13.976562 7.371094 13.804688 7.296875 13.582031 C 7.203125 13.878906 7.320312 14.207031 7.585938 14.371094 C 7.851562 14.539062 8.195312 14.507812 8.425781 14.289062 L 10 12.835938 Z M 14.523438 13.574219 C 14.476562 13.710938 14.390625 13.835938 14.269531 13.917969 L 11.085938 16.195312 C 10.878906 16.34375 10.601562 16.363281 10.375 16.246094 C 10.144531 16.128906 10 15.890625 10 15.636719 L 10 16.058594 C 10 16.316406 10.144531 16.550781 10.375 16.667969 C 10.601562 16.789062 10.878906 16.765625 11.085938 16.617188 L 14.269531 14.34375 C 14.511719 14.167969 14.617188 13.859375 14.523438 13.574219 Z M 14.523438 13.574219 "/>
<path style="fill:none;stroke-width:3;stroke-linecap:round;stroke-linejoin:round;stroke:rgb(12.941176%,12.941176%,12.941176%);stroke-opacity:1;stroke-miterlimit:4;" d="M 249.067124 -100.010981 C 244.703905 -100.101881 240.613386 -98.374774 237.522772 -95.37506 C 234.432158 -92.375346 232.705051 -88.284828 232.705051 -84.012509 L 232.705051 -8.92877 L 196.072185 -42.834623 C 191.890766 -46.834241 185.891339 -48.197747 180.346414 -46.56154 C 174.801489 -44.834432 170.62007 -40.289411 169.438365 -34.653586 C 168.165759 -29.01776 170.074668 -23.200134 174.346987 -19.382317 L 230.43254 32.430917 L 174.346987 84.15325 C 170.074668 88.061968 168.165759 93.879594 169.438365 99.51542 C 170.62007 105.151245 174.801489 109.696266 180.346414 111.332473 C 185.891339 113.059581 191.890766 111.605174 196.072185 107.696457 L 232.705051 73.790604 L 232.705051 148.874343 C 232.705051 154.782869 236.068366 160.327794 241.43149 163.054807 C 246.703714 165.781819 253.157643 165.327317 257.975365 161.873101 L 332.059199 108.878162 C 335.967917 106.15115 338.422228 101.69703 338.694929 96.879308 C 339.058531 92.152487 337.149622 87.425665 333.604506 84.15325 L 277.518953 32.430917 L 333.604506 -19.382317 C 337.149622 -22.563831 339.058531 -27.290653 338.694929 -32.108374 C 338.422228 -36.835196 335.967917 -41.289316 332.059199 -44.107229 L 257.975365 -97.011267 C 255.339253 -98.829276 252.248639 -99.92008 249.067124 -100.010981 Z M 264.701995 -52.924568 L 297.517043 -29.472262 L 264.701995 0.797574 Z M 264.701995 63.973359 L 297.517043 94.334096 L 264.701995 117.786402 Z M 264.701995 63.973359 " transform="matrix(0.0429729,0,0,0.0429729,0,9.239163)"/>
</g>
</svg>
